dist/images/icons/icon-instagram.svg

<svg width="20" height="20" viewBox="0 0 20 20" fill="none" xmlns="http://www.w3.org/2000/svg">
<path d="M9.74756 6.49862C7.95723 6.49862 6.49618 7.95967 6.49618 9.75C6.49618 11.5403 7.95723 13.0014 9.74756 13.0014C11.5379 13.0014 12.9989 11.5403 12.9989 9.75C12.9989 7.95967 11.5379 6.49862 9.74756 6.49862ZM19.4993 9.75C19.4993 8.40359 19.5115 7.06938 19.4359 5.72541C19.3602 4.16435 19.0041 2.77891 17.8626 1.63739C16.7186 0.493433 15.3356 0.139757 13.7746 0.0641433C12.4282 -0.0114703 11.094 0.00072551 9.75 0.00072551C8.40359 0.00072551 7.06938 -0.0114703 5.72541 0.0641433C4.16435 0.139757 2.77892 0.495872 1.63739 1.63739C0.493433 2.78135 0.139757 4.16435 0.0641433 5.72541C-0.0114703 7.07182 0.00072551 8.40603 0.00072551 9.75C0.00072551 11.094 -0.0114703 12.4306 0.0641433 13.7746C0.139757 15.3356 0.495873 16.7211 1.63739 17.8626C2.78135 19.0066 4.16435 19.3602 5.72541 19.4359C7.07182 19.5115 8.40603 19.4993 9.75 19.4993C11.0964 19.4993 12.4306 19.5115 13.7746 19.4359C15.3356 19.3602 16.7211 19.0041 17.8626 17.8626C19.0066 16.7186 19.3602 15.3356 19.4359 13.7746C19.5139 12.4306 19.4993 11.0964 19.4993 9.75V9.75ZM9.74756 14.7527C6.97913 14.7527 4.74487 12.5184 4.74487 9.75C4.74487 6.98157 6.97913 4.74731 9.74756 4.74731C12.516 4.74731 14.7503 6.98157 14.7503 9.75C14.7503 12.5184 12.516 14.7527 9.74756 14.7527ZM14.9551 5.71077C14.3088 5.71077 13.7868 5.18879 13.7868 4.54242C13.7868 3.89604 14.3088 3.37407 14.9551 3.37407C15.6015 3.37407 16.1235 3.89604 16.1235 4.54242C16.1237 4.6959 16.0936 4.84792 16.035 4.98976C15.9763 5.13159 15.8903 5.26047 15.7817 5.369C15.6732 5.47753 15.5443 5.56358 15.4025 5.62223C15.2606 5.68087 15.1086 5.71096 14.9551 5.71077V5.71077Z" fill="black"/>
</svg>

<svg width="20" height="20" fill="none" xmlns="http://www.w3.org/2000/svg"><path d="M9.748 6.499A3.258 3.258 0 006.496 9.75a3.258 3.258 0 003.252 3.251 3.258 3.258 0 003.25-3.251 3.258 3.258 0 00-3.25-3.251zm9.751 3.251c0-1.346.013-2.68-.063-4.025-.076-1.56-.432-2.946-1.573-4.088C16.719.493 15.336.14 13.775.064 12.428-.01 11.094.001 9.75.001 8.404 0 7.07-.011 5.725.064 4.165.14 2.78.496 1.637 1.637.493 2.781.14 4.164.064 5.725-.01 7.072.001 8.406.001 9.75c0 1.344-.012 2.68.063 4.025.076 1.56.432 2.946 1.573 4.088 1.144 1.144 2.527 1.497 4.088 1.573 1.347.076 2.681.063 4.025.063 1.346 0 2.68.013 4.025-.063 1.56-.076 2.946-.432 4.088-1.573 1.144-1.144 1.497-2.527 1.573-4.088.078-1.344.063-2.679.063-4.025zm-9.751 5.003A4.996 4.996 0 014.745 9.75a4.996 4.996 0 015.003-5.003A4.996 4.996 0 0114.75 9.75a4.996 4.996 0 01-5.002 5.003zm5.207-9.042a1.167 1.167 0 01-1.168-1.169c0-.646.522-1.168 1.168-1.168a1.167 1.167 0 01.827 1.995 1.167 1.167 0 01-.827.342z" fill="#000"/></svg>
